X: 28
T: Missa De plus en plus / Kyrie
N: Derived from Ock1005a-Missa_De_plus_en_plus-Kyrie.krn
C: Johannes Ockeghem
%%abc-version 2.0
%%abcx-abcm2ps-target-version 5.9.1 (29 Sep 2008)
%%abc-creator hum2abc beta
%%abcx-conversion-date 2019/02/17 07:26:14
%%abc-edited-by Jesse Rodin
%%abc-edited-by Will Watson 11/1/2012
%%abcx-initial-encoding-date 2012/01/11/
%%humdrum-veritas 904043513
%%humdrum-veritas-data 2318741127
%%linebreak <none>
%%barnumbers 0
L: 1/4
M: 3/1
Q: 1/2=120
%%staves [1 2 3 4]
V: 1 clef=treble
V: 2 clef=treble-8
V: 3 clef=treble-8
V: 4 clef=bass
K: C
[V:1] G6A2B4 | 
[V:2] d12- | 
[V:3] G12 | 
[V:4] G,12- | 
[V:1] B4d6c2 | 
[V:2] d4g6fe | 
[V:3] B12 | 
[V:4] G,12 | 
[V:1] c6B2A2G2 | 
[V:2] e12 | 
[V:3] c12 | 
[V:4] A,12 | 
[V:1] A4G4c4 | 
[V:2] z4c8 | 
[V:3] e12 | 
[V:4] C8A,4 | 
[V:1] B2A2F2G2E2D2 | 
[V:2] d4A2G4A2 | 
[V:3] d6B2c2d2 | 
[V:4] z2D,4E,4F,2 | 
[V:1] _B3A/B/AGG4^F2 | 
[V:2] _B2G2d8 | 
[V:3] G2d4B2A4 | 
[V:4] G,8D,4 | 
[V:1] G12 | 
[V:2] d4B4c2d2- | 
[V:3] G6E4D2 | 
[V:4] G,,8C,2B,,2 | 
[V:1] z4z4F3G | 
[V:2] d2B4G2A2F2 | 
[V:3] G3AB2c2d2B2 | 
[V:4] G,,2G,4E,2D,4 | 
[V:1] E2A4G4E2 | 
[V:2] G2z2E4G4 | 
[V:3] c12 | 
[V:4] C,12 | 
[V:1] FEDCB,2C2A,4 | 
[V:2] A4G4F4 | 
[V:3] c4d2e2fedc | 
[V:4] z12 | 
[V:1] G,4G4A4 | 
[V:2] z2G4G3E^F2 | 
[V:3] B4c2d4c2 | 
[V:4] E,4C,2B,,2A,,4 | 
[V:1] B4G2G4F2 | 
[V:2] G4B3cd4 | 
[V:3] B2G4B2A4 | 
[V:4] G,,4G,4D,2F,2 | 
[V:1] G4A2G2E3D | 
[V:2] e4d2e2c4 | 
[V:3] G2E2F2G3FA2- | 
[V:4] E,2C,2z2C,4A,,2- | 
[V:1] F2E3CC4B,2 | 
[V:2] c3BG3AF4 | 
[V:3] A2G2E2F2D4 | 
[V:4] A,,2C,4F,4D,2 | 
[V:1] C12 ||  
[V:2] G12 ||  
[V:3] C12 ||  
[V:4] E,6C,2C,4 ||  
[V:1]  [K:C] [M:3/1]G6A2G2E2 | 
[V:2]  [K:C] [M:3/1]e8c4 | 
[V:3]  [K:C] [M:3/1]c12 | 
[V:4]  [K:C] [M:3/1]C,8C,4 | 
[V:1] D2G4F2G2A2 | 
[V:2] d4c2d4A2- | 
[V:3] B4G2A2B2c2 | 
[V:4] G,4E,2D,3G,F,2 | 
[V:1] F4G4z4 | 
[V:2] A4G2D2d4- | 
[V:3] d4B2G2D2G2- | 
[V:4] D,4G,,8 | 
[V:1] z12 | 
[V:2] d4z4c4 | 
[V:3] GAB2cBAG^F3E | 
[V:4] z2G,,4B,,2A,,4 | 
[V:1] D4E4F4 | 
[V:2] B6c4d2 | 
[V:3] G6A4GF | 
[V:4] G,,4z4z4 | 
[V:1] G4A4B4 | 
[V:2] e4f4g4 | 
[V:3] E4D4z4 | 
[V:4] z12 | 
[V:1] A4d6c2 | 
[V:2] z2f4d2d3c | 
[V:3] d8B4 | 
[V:4] z12 | 
[V:1] c6A2B4 | 
[V:2] A4G8 | 
[V:3] c4d8 | 
[V:4] z12 | 
[V:1] c4A2G4D2 | 
[V:2] g4e2c2B4 | 
[V:3] c6BAG3F | 
[V:4] C,8z4 | 
[V:1] E2F2G4F2A2- | 
[V:2] c4B2G2z2d2- | 
[V:3] G2A2G2E2D4 | 
[V:4] C,2A,,2B,,2C,2D,4 | 
[V:1] A_BAGE2A2GG2F | 
[V:2] d2A2c3AB2d2- | 
[V:3] z2F2C2F2G2_B2- | 
[V:4] D,4A,,4z4 | 
[V:1] EDE2F2D4^C2 | 
[V:2] d2c2A2B2G4 | 
[V:3] B2A2F2G2E4 | 
[V:4] z12 | 
[V:1] D12 ||  
[V:2] A12 ||  
[V:3] D12 ||  
[V:4] D,12 ||  
[V:1]  [K:C] [M:3/1]G8E2D2- | 
[V:2]  [K:C] [M:3/1]c4d2e2c2A2 | 
[V:3]  [K:C] [M:3/1]z4z4G2F2 | 
[V:4]  [K:C] [M:3/1]C,4B,,2C,4D,2 | 
[V:1] D2G3AG2c4 | 
[V:2] B3cd2B2A4 | 
[V:3] G2E2D2G4^F2 | 
[V:4] G,,8A,,4 | 
[V:1] B8A4 | 
[V:2] z2d4G2A4 | 
[V:3] G4z2G2c2d2 | 
[V:4] G,,4G,4F,4 | 
[V:1] G2B3cd2G2B2- | 
[V:2] B2G8F2 | 
[V:3] e4d2B3cd2 | 
[V:4] E,4z4E,2D,2 | 
[V:1] B2G2D2G4^F2 | 
[V:2] G4z4d4 | 
[V:3] G2B4c2A4 | 
[V:4] G,6C,2D,4 | 
[V:1] G3AB2c2d2G2 | 
[V:2] e4d4G2F2 | 
[V:3] G6A2B2c2 | 
[V:4] G,,8z4 | 
[V:1] F2E4D4^C2 | 
[V:2] D2_B4A2G4 | 
[V:3] d2G4F2E4 | 
[V:4] z4z2D,2E,4 | 
[V:1] D4E4F3E/D/ | 
[V:2] A3Bc4B4 | 
[V:3] D4z4D4 | 
[V:4] F,3E,/D,/C,4D,4 | 
[V:1] C8D4 | 
[V:2] A8z4 | 
[V:3] E6F4E2 | 
[V:4] A,,8A,4 | 
[V:1] E4F4z4 | 
[V:2] c2B2A2d4^c2 | 
[V:3] C2G2A2D2E4 | 
[V:4] G,4F,4G,4 | 
[V:1] F3GA2_B4A2- | 
[V:2] d3ef6e2- | 
[V:3] D12 | 
[V:4] A,2B,2A,2D4C2 | 
[V:1] AGG4^F2G4 | 
[V:2] edd4c2B4- | 
[V:3] z4z4d4 | 
[V:4] B,2G,2A,4G,4 | 
[V:1] E2D2G4E3F | 
[V:2] B4c4G4- | 
[V:3] G6c4BA | 
[V:4] z4C,4C,4 | 
[V:1] D2C2B,2C2D4 | 
[V:2] G8z4 | 
[V:3] B2e2d2c4B2 | 
[V:4] B,,2C,2G,,2C,2G,4 | 
[V:1] C4z4G4 | 
[V:2] A4c3de4 | 
[V:3] c12- | 
[V:4] z2A,4G,F,E,4 | 
[V:1] A4c6BA | 
[V:2] A4G8 | 
[V:3] c4e8 | 
[V:4] F,4C,8 | 
[V:1] B3cd4G2A2 | 
[V:2] z4G6F2 | 
[V:3] d4B4c3d | 
[V:4] G,8E,2D,2 | 
[V:1] c2B3GG4^F2 | 
[V:2] G4z4d4 | 
[V:3] e2d2B2c2A4 | 
[V:4] C,2G,4C,2D,4 | 
[V:1] G12- | 
[V:2] d2B4c2d4 | 
[V:3] G12- | 
[V:4] G,,12- | 
[V:1] G12 |]  
[V:2] d12 |]  
[V:3] G12 |]  
[V:4] G,,12 |]  



